X:1
T:Quick Step. RHu.072
L:1/8
Q:1/4=100
M:2/4
I:linebreak $
K:G
V:1 treble 
V:1
 d | gd/e/ dc | Bd dg | f/g/a/b/ c'/b/a/g/ | fg a2 | gd/e/ dc | Bd dg | f/g/a/b/ gf | ga g ::$ %9
 g/a/ | b2 ag | fd' d'2 | c'b/c'/ ag | fg a2 | b2 ag | fd' d'c' | ba/b/ gf | g3 :| %18
